X:1
T:Universal Fox Trot
T:Universal Fox Trot
T:By Joe Rosey
T:Copyright 1915 by Shapiro, Bernstein &amp; Co
T:Copyright 1915 by Shapiro, Bernstein &amp; Co
T:Copyright 1915 by Shapiro, Bernstein &amp; Co
T:Copyright 1915 by Shapiro, Bernstein &amp; Co
T:Copyright 1915 by Shapiro, Bernstein &amp; Co
C:By JOE ROSEY
Z:Copyright 1915 by Shapiro, Bernstein & Co
%%score { ( 1 3 ) | ( 2 4 ) }
L:1/8
Q:1/4=180
M:4/4
K:C
V:1 treble nm="Piano" snm="Pno."
V:3 treble 
V:2 bass 
V:4 bass 
V:1
"^Tempo di Fox Trot""^Also Published\n  for Orchestra"!f! z2 | z2 g>a [ec']>ag>e | %2
 c>de>c z2 [c_e_a]2 | !^![GBfg]2!<(! !^![GBg]2 !^![Gcg]2 !^![G^cg]2!<)! | %4
 !^![Gdg]2 z2 !^![GBfg] z z2 |:!p! z2 ([eg]>a [ec']>ag>e | c>d)e>c z2 [c_e_a]2 | %7
 z2 [=eg]>=a [ec']>ag>e | c>de>c z2 [cea]2 | z3/2 (G<[FA]G/ B G3) | z3/2 (c<[Gd]c/ e c3) | %11
 z3/2 (d<[ce]d/ ^f d3) | z3/2 (g<[B=fa]g/ b g3) | z2 ([eg]>a [ec']>ag>e | c>d)e>c z2 [c_e_a]2 | %15
 z2 [=eg]>=a [ec']>ag>e | c>de>c z2 [cea]2 | !^![^Fd]2 !^![Fc]2 !^![Fd] !^![Fc]3 | %18
 [ceg]!<(!ab[^cga]-!<)! [cga]g [ce]2 | c>de>c [Ge] [Fd]3 |1 [Ec]4!<(! z4!<)! :|2 %21
 [Ec] z!<(! !^![cec']2 !^![cfc']2 !^![cgc']2!<)! |:!f! !^![ac']4 !^![fa]4 | !^![_e^f]4 !^![ce]4 | %24
 z3/2 (e<[^dg]e/ g [eb]2 g) |!<(! [ea]6!<)!!>(! z2!>)! | z3/2 (g<[fa]g/ a b2 g | %27
 [fa]4-) [fa]>g[fa]>b | !^![ec'] z !^!d'!^!c'- c'!^!a !^!g2 | !^!e2 !^!d!^!c- c!^!_A !^!G2 | %30
!f! !^![ac']4 !^![fa]4 | !^![_e^f]4 !^![ce]4 | z3/2 (e<[^dg]e/ g [eb]2 g) | [ea]4- [ea]>g[ea]>b | %34
 [_ec']!<(!bc'!^![ed']-!<)!!>(! [ed']c' [ea]2!>)! | [=eg]!<(!^fg!^![^cb]-!<)!!>(! [cb]a [cg]2!>)! | %36
 [=ce]!<(!^de[Bg]-!<)! [Bg]e [B=d]2 |1 c2!<(! !^![cec']2 !^![cfc']2 !^![cgc']2!<)! :|2 c2 z2 z4 || %39
S!p! z2 ([eg]>a [ec']>ag>e | c>d)e>c z2 [c_e_a]2 | z2 [=eg]>=a [ec']>ag>e | c>de>c z2 [cea]2 | %43
 z3/2 (G<[FA]G/ B G3) | z3/2 (c<[Gd]c/ e c3) | z3/2 (d<[ce]d/ ^f d3) | z3/2 (g<[B=fa]g/ b g3) | %47
 z2 ([eg]>a [ec']>ag>e | c>d)e>c z2 [c_e_a]2 | z2 [=eg]>=a [ec']>ag>e | c>de>c z2 [cea]2 | %51
 !^![^Fd]2 !^![Fc]2 !^![Fd] !^![Fc]3 | [ceg]!<(!ab[^cga]-!<)! [cga]g [ce]2 | c>de>c [Ge] [Fd]3 | %54
 ((!^![Ec]4 !^![cegc'])) z"_Fine" z2!fine! |:[M:4/4]"_TRIO"{AB} !^!c !^!A2 !^!A- A2 z2 | %56
 z3/2 (c<[Ae]c/ [^Fd]2 [Fc]2) | !^![Gc] !^![EG]2 !^![EG]- [EG]2 z2 | z3/2 (G<BG/ [EA]2 [EG]2) | %59
 !^![fg] !^![Bd]2 !^![Bd]- [Bd]2!<(! z2!<)! | z2!<(! !^![Bd]2 !^![Be]2 !^![Bf]2!<)! | %61
 !^![Gcg] z ((^FG)) !^![CF^G] z (=G^G) | !^![C=FA] z (^GA B=GAB) |{AB} !^!c !^!A2 !^!A- A2 z2 | %64
 z3/2 (c<[Ae]c/ [^Fd]2 [Fc]2) | !^![Gc] !^![EG]2 !^![EG]- [EG]2 z2 | z3/2 (G<BG/ [EA]2 [EG]2) | %67
 !^![fg] !^![Bd]2 !^![Bd]- [Bd]2!<(! z2!<)! | z3/2 G<[FB]G/ [FBe]2 [FBd]2 |1 [Ec]4!<(! z4!<)! | %70
 z2 (3(GAB d>cB>_B) :|2 [Ec]2 (3(EF^F A>GD>G) | C z z2 !^![CEGc] z"_D.S. al Fine" z2!D.S.! |] %73
V:2
 [G,,G,]2 | !^![C,C]2 [G,CE]2 [G,,G,]2 [G,CE]2 | C>DE>C z2 [C_G]2 | %3
 !^![G,,G,]2 !^![G,,G,]2 !^![A,,A,]2 !^![^A,,^A,]2 | %4
 !^![B,,B,]2 z2 !arpeggio!!^![G,,D,B,] z !^![G,,G,]2 |: !^![C,C]2 [G,CE]2 [G,,G,]2 [G,CE]2 | %6
 [C,C]2 [G,CE]2 [_A,,_A,]2 [_A,C_G]3/2 (3F,/4=A,/4B,/4 | !>!C2 [G,CE]2 G,,2 [G,CE]2 | %8
 C,2 [G,CE]2 =A,,2 [A,CE]2 | D,2 [F,G,B,]2 !^![G,,G,]2 !^![F,,F,]2 | %10
 !^![E,,E,]2 [G,CE]2 !^![A,,A,]2 !^![G,,G,]2 | !^![^F,,^F,]2 [D,^F,C]2 [D,,D,]2 [D,F,C]2 | %12
 !^![G,,G,]2 [G,B,=F]2 [G,B,F]2 !^![G,,G,]2 | !^![C,C]2 [G,CE]2 [G,,G,]2 [G,CE]2 | %14
 [C,C]2 [G,CE]2 [_A,,_A,]2 [_A,C_G]3/2 (3F,/4=A,/4B,/4 | !>!C2 [G,CE]2 G,,2 [G,CE]2 | %16
 C,2 [G,CE]2 =A,,2 [A,CE]2 | [A,,A,]2 [D,^F,C]2 !^![A,,A,]2 !^![_A,,_A,]2 | %18
 !^![G,,G,]2 [G,CE]2 [A,,A,]2 [A,^CG]2 | z2 [^F,=C]2 G,,2 [=F,G,B,]2 |1 %20
 !^![C,C]2 !^![G,,G,]2 !^![A,,A,]2 !^![B,,B,]2 :|2 [C,C] z !^![C,C]2 !^![D,D]2 !^![E,E]2 |: %22
 !arpeggio![F,,C,A,]2 [A,CF]2 [C,,C,]2 [A,CF]2 | [A,,A,]2 [G,C_E]2 [^F,,^F,]2 [F,A,C]2 | %24
 !^![G,,G,]2 [G,CE]2 [G,,G,]2 [G,CE]2 | [C,C]>(^DE>D E>CB,>A,) | z2 [B,F]2 [G,,G,]2 [G,B,F]2 | %27
 G,>^CD>E F z [G,,G,]2 | !arpeggio![C,G,E] z[K:treble] !^!d!^!c- c!^!A !^!G2 | %29
[K:bass] !^!E2 !^!D!^!C- C!^!_A, !^!G,2 | !arpeggio![F,,C,A,]2 [A,CF]2 [C,,C,]2 [A,CF]2 | %31
 [A,,A,]2 [G,C_E]2 [^F,,^F,]2 [F,A,C]2 | !^![G,,G,]2 [G,CE]2 [G,,G,]2 [G,CE]2 | %33
 [C,C]>!^!^D!^!E>!^!D !^!G, z z2 | [^F,,^F,]2 [F,A,C]2 [F,A,C]2 [F,,F,]2 | %35
 [G,,G,]2 [G,CE]2 [A,,A,]2 [A,^CG]2 | [D,,D,]2 [D,^F,=C]2 [G,,G,]2 [=F,G,B,]2 |1 %37
 !arpeggio![C,G,E]2 !^![C,C]2 !^![D,D]2 !^![E,E]2 :|2 %38
 !arpeggio![C,G,E]2 !^![G,,G,]2 !^![A,,A,]2 !^![B,,B,]2 || !^![C,C]2 [G,CE]2 [G,,G,]2 [G,CE]2 | %40
 [C,C]2 [G,CE]2 [_A,,_A,]2 [_A,C_G]3/2 (3F,/4=A,/4B,/4 | !>!C2 [G,CE]2 G,,2 [G,CE]2 | %42
 C,2 [G,CE]2 =A,,2 [A,CE]2 | D,2 [F,G,B,]2 !^![G,,G,]2 !^![F,,F,]2 | %44
 !^![E,,E,]2 [G,CE]2 !^![A,,A,]2 !^![G,,G,]2 | !^![^F,,^F,]2 [D,^F,C]2 [D,,D,]2 [D,F,C]2 | %46
 !^![G,,G,]2 [G,B,=F]2 [G,B,F]2 !^![G,,G,]2 | !^![C,C]2 [G,CE]2 [G,,G,]2 [G,CE]2 | %48
 [C,C]2 [G,CE]2 [_A,,_A,]2 [_A,C_G]3/2 (3F,/4=A,/4B,/4 | !>!C2 [G,CE]2 G,,2 [G,CE]2 | %50
 C,2 [G,CE]2 =A,,2 [A,CE]2 | [A,,A,]2 [D,^F,C]2 !^![A,,A,]2 !^![_A,,_A,]2 | %52
 !^![G,,G,]2 [G,CE]2 [A,,A,]2 [A,^CG]2 | z2 [^F,=C]2 G,,2 [=F,G,B,]2 | %54
 !^![C,C]2 !^![G,,G,]2 !^![C,,C,] z z2 |:[M:4/4] !arpeggio![F,,C,A,]4 z3/2 !^!C,<!^!D,!^!E,/ | %56
 !^!F,4 [D,,D,]2 [D,^F,C]2 | [G,,G,]2 [G,CE]2 z3/2 !^!G,<!^!B,!^!A,/ | !^!G,2 z2 ^C,2 [G,A,^C]2 | %59
 D,2 [G,B,F]2 z3/2 D,<^C,D,/ | !^!G,2 !^!F,2 !^!E,2 !^!D,2 | !^!E, z z2 !^!_E, z z2 | %62
 !^!D, z z2 [G,,G,]2 [F,G,B,]2 | !arpeggio![F,,C,A,]4 z3/2 !^!C,<!^!D,!^!E,/ | %64
 !^!F,4 [D,,D,]2 [D,^F,C]2 | [G,,G,]2 [G,CE]2 z3/2 !^!G,<!^!B,!^!A,/ | !^!G,2 z2 ^C,2 [G,A,^C]2 | %67
 D,2 [G,B,F]2 z3/2 D,<^C,D,/ | (!^!G,4 G,,2) [F,G,B,]2 |1 [C,C]2 (3C,D,^D, E,2 (3E,F,^F, | %70
 G,2 (3G,A,B, D>CB,>_B, :|2 [C,C]2 (3E,F,^F, A,>G,D,>E, | %72
 C, z z2 !arpeggio!!^![C,,G,,E,] z !^![G,,G,]2 |] %73
V:3
 x2 | x2 e2 x4 | x4 _A4 | x8 | x8 |: x8 | x4 _A4 | x8 | x4 =A4 | x4 F4 | x4 A4 | x4 c4 | x4 [Bf]4 | %13
 x8 | x4 _A4 | x8 | x4 =A4 | x8 | x8 | x8 |1 x8 :|2 x8 |: z2 [cf]2 z2 [Ac]2 | z2 [^FA]2 z2 [_EF]2 | %24
 x8 | x8 | x4 f4 | x8 | x8 | x8 | z2 [cf]2 z2 [Ac]2 | z2 [^FA]2 z2 [_EF]2 | x8 | x8 | x8 | x8 | %36
 x8 |1 x8 :|2 x8 || x8 | x4 _A4 | x8 | x4 =A4 | x4 F4 | x4 A4 | x4 c4 | x4 [Bf]4 | x8 | x4 _A4 | %49
 x8 | x4 =A4 | x8 | x8 | x8 | x8 |:[M:4/4] F4- F2 x2 | x8 | x8 | x2 E2 x4 | x8 | x8 | x8 | %62
 x4 F2 F2 | F4- F2 x2 | x8 | x8 | x2 E2 x4 | x8 | x8 |1 x8 | x8 :|2 x8 | x8 |] %73
V:4
 x2 | x8 | x4 _A,4 | x8 | x8 |: x8 | x8 | x8 | x8 | x8 | x8 | x8 | x8 | x8 | x8 | x8 | x8 | x8 | %18
 x8 | D,4 x4 |1 x8 :|2 x8 |: x8 | x8 | x8 | x8 | G,4 x4 | x8 | x2[K:treble] x6 |[K:bass] x8 | x8 | %31
 x8 | x8 | x8 | x8 | x8 | x8 |1 x8 :|2 x8 || x8 | x8 | x8 | x8 | x8 | x8 | x8 | x8 | x8 | x8 | x8 | %50
 x8 | x8 | x8 | D,4 x4 | x8 |:[M:4/4] x8 | x8 | x8 | x8 | x8 | x8 | x8 | x8 | x8 | x8 | x8 | x8 | %67
 x8 | x8 |1 x8 | x8 :|2 x8 | x8 |] %73

